X:1
T:Little Friends of Jesus
T:Hubert Platt Main
T:Little Friends of Jesus
T:Public Domain
T:Public Domain
C:Hubert Platt Main
Z:Public Domain
%%score ( 1 2 ) ( 3 4 )
L:1/8
M:2/4
K:D
V:1 treble 
V:2 treble 
V:3 bass 
V:4 bass 
V:1
 [FA][EG] [DF][EG] | [FA]2 [DF]2 | [CE][DF] [EG][FA] | [DF]4 | [GB][Bd] [Ac][GB] | [FA]2 [DF]2 | %6
w: 1.~We are lit- tle|child- ren,|ver- y young in-|deed,|But the Sav- ior’s|prom- ise|
w: 2.~Lit- tle friends of|Je- sus,|what a hap- py|thought!|Was a pre- cious|prom- ise|
w: 3.~Lit- tle friends of|Je- sus,|walk- ing by His|side,|With His arm a-|round us,|
w: 4.~We must love Him|dear- ly|with a con- stant|love,|Then we’ll go and|see Him|
 [CE][CA] [D^G][DB] | [CA]4 ||"^Refrain" [Fd][Fd] [Ac][GB] | [FA]2 [DF]2 | [GB][FA] [EG][DF] | %11
w: each of us may|plead.||||
w: in the Bi- ble|taught!||||
w: ev- ery step to|guide.||||
w: in our home a-|bove.||||
 [CE]4 | [DF][EG] [FA][Fd] | [Ac][GB] ([FA][EG]) | [DF][DF] [EG][CE] | D4 |] %16
w: |||||
w: |||||
w: |||||
w: |||||
V:2
 x4 | x4 | x4 | x4 | x4 | x4 | x4 | x4 || x4 | x4 | x4 | x4 | x4 | x4 | x4 | D4 |] %16
V:3
 [D,A,][D,A,] [D,A,][D,A,] | [D,D]2 [D,A,]2 | [A,,A,][A,,A,] [A,,A,][A,,A,] | [D,A,]4 | %4
w: ~ ~ ~ ~|~ ~|~ ~ ~ ~|~|
 [G,,B,][G,,B,] [G,,C][G,,D] | [D,D]2 [D,A,]2 | [E,A,][E,A,] [E,B,][E,^G,] | A,4 || %8
w: ~ ~ ~ ~|~ ~|~ ~ ~ ~|~|
 [D,A,][D,A,] [D,B,][D,C] | [D,D]2 [D,A,]2 | [G,,G,][G,,D] [G,,B,][^G,,E,] | [A,,A,]4 | %12
w: we seek Him ear-|ly, if|we come to- day,|We|
 [D,A,][D,A,] [D,D][D,A,] | [G,,B,][G,,D] [G,,B,]2 | [A,,A,][A,,A,] [A,,A,][A,,G,] | [D,F,]4 |] %16
w: can be His lit-|tle friends, He|has said we may.||
V:4
 x4 | x4 | x4 | x4 | x4 | x4 | x4 | A,4 || x4 | x4 | x4 | x4 | x4 | x4 | x4 | x4 |] %16
w: |||||||If|||||||||

